X:63
M:3/4
L:1/8
K:F
c>d|_e3 gfe|d2 e2 f2|c3 dfg|f2d2c2|_edegfe|d3=e f2|c2 BAGF|F2D2C2|
f2e2d2|c2B2A2|G3 FAG|F3 G/A/ C2|D>E F4|AgedcB|A3B G2|F6||

